;FLAVOR:RepRap
;TIME:9651
;Filament used: 6.60501m
;Layer height: 0.1
;Generated with Cura_SteamEngine 2.5.0
M190 S60
M104 S200
M109 S200
G21 ;metric values
G90 ;absolute positioning
M82 ;set extruder to absolute mode
M107 ;start with the fan off
G28 X0 Y0 ;move X/Y to min endstops
G28 Z0 ;move Z to min endstops
G1 Z15.0 F9000 ;move the platform down 15mm
G92 E0 ;zero the extruded length
G1 F200 E3 ;extrude 3mm of feed stock
G92 E0 ;zero the extruded length again
G1 F9000
;Put printing message on LCD screen
M117 Printing...
;LAYER_COUNT:298
;LAYER:0
M107
G0 F3600 X27.51 Y72.688 Z0.3
;TYPE:SKIRT
G1 F1800 X28.263 Y72.451 E0.03938
G1 X29.037 Y72.292 E0.07881
G1 X29.822 Y72.211 E0.11818
G1 X30.224 Y72.201 E0.13824
G1 X60.224 Y72.201 E1.63495
G1 X61.013 Y72.241 E1.67436
G1 X61.793 Y72.36 E1.71372
G1 X62.558 Y72.558 E1.75315
G1 X63.298 Y72.832 E1.79252
G1 X64.007 Y73.18 E1.83192
G1 X64.678 Y73.598 E1.87136
G1 X65.302 Y74.081 E1.91073
G1 X65.875 Y74.624 E1.95011
G1 X66.39 Y75.223 E1.98952
G1 X66.841 Y75.871 E2.02891
G1 X67.225 Y76.562 E2.06835
G1 X67.537 Y77.287 E2.10773
G1 X67.774 Y78.04 E2.14711
G1 X67.933 Y78.814 E2.18653
G1 X68.014 Y79.599 E2.22591
G1 X68.024 Y80.001 E2.24597
G1 X68.024 Y82.201 E2.35573
G1 X170.223 Y82.2 E7.45445
G1 X171.012 Y82.24 E7.49387
G1 X171.792 Y82.359 E7.53323
G1 X172.557 Y82.557 E7.57266
G1 X173.297 Y82.831 E7.61203
G1 X174.006 Y83.179 E7.65143
G1 X174.677 Y83.596 E7.69084
G1 X175.301 Y84.08 E7.73024
G1 X175.874 Y84.623 E7.76963
G1 X176.389 Y85.222 E7.80904
G1 X176.84 Y85.87 E7.84842
G1 X177.224 Y86.56 E7.88782
G1 X177.536 Y87.286 E7.92724
G1 X177.773 Y88.039 E7.96663
G1 X177.932 Y88.813 E8.00605
G1 X178.013 Y89.598 E8.04542
G1 X178.023 Y90 E8.06548
G1 X178.023 Y110 E9.06329
G1 X177.983 Y110.789 E9.1027
G1 X177.864 Y111.569 E9.14207
G1 X177.666 Y112.334 E9.18149
G1 X177.392 Y113.074 E9.22086
G1 X177.044 Y113.783 E9.26026
G1 X176.626 Y114.454 E9.2997
G1 X176.143 Y115.078 E9.33907
G1 X175.6 Y115.651 E9.37845
G1 X175.001 Y116.166 E9.41786
G1 X174.353 Y116.617 E9.45725
G1 X173.662 Y117.001 E9.49669
G1 X172.937 Y117.313 E9.53607
G1 X172.184 Y117.55 E9.57545
G1 X171.41 Y117.709 E9.61488
G1 X170.625 Y117.79 E9.65425
G1 X170.223 Y117.8 E9.67431
G1 X68.024 Y117.8 E14.77304
G1 X68.024 Y120 E14.8828
G1 X67.984 Y120.789 E14.92221
G1 X67.865 Y121.569 E14.96158
G1 X67.667 Y122.334 E15.001
G1 X67.393 Y123.074 E15.04037
G1 X67.045 Y123.783 E15.07977
G1 X66.627 Y124.454 E15.11921
G1 X66.144 Y125.078 E15.15858
G1 X65.601 Y125.651 E15.19796
G1 X65.002 Y126.166 E15.23737
G1 X64.354 Y126.617 E15.27676
G1 X63.663 Y127.001 E15.3162
G1 X62.938 Y127.313 E15.35558
G1 X62.185 Y127.55 E15.39496
G1 X61.411 Y127.709 E15.43438
G1 X60.626 Y127.79 E15.47376
G1 X60.224 Y127.8 E15.49382
G1 X29.777 Y127.8 E17.01283
G1 X28.988 Y127.76 E17.05224
G1 X28.208 Y127.641 E17.0916
G1 X27.443 Y127.443 E17.13103
G1 X26.703 Y127.169 E17.1704
G1 X25.994 Y126.821 E17.2098
G1 X25.323 Y126.403 E17.24924
G1 X24.699 Y125.92 E17.28861
G1 X24.126 Y125.377 E17.32799
G1 X23.611 Y124.778 E17.3674
G1 X23.16 Y124.13 E17.40679
G1 X22.776 Y123.439 E17.44623
G1 X22.464 Y122.714 E17.48561
G1 X22.227 Y121.961 E17.52499
G1 X22.068 Y121.187 E17.56441
G1 X21.987 Y120.402 E17.60379
G1 X21.977 Y120 E17.62385
G1 X21.977 Y110 E18.12275
G1 X22.017 Y109.211 E18.16216
G1 X22.136 Y108.431 E18.20153
G1 X22.334 Y107.666 E18.24095
G1 X22.608 Y106.926 E18.28032
G1 X22.956 Y106.217 E18.31972
G1 X23.374 Y105.546 E18.35916
G1 X23.857 Y104.922 E18.39853
G1 X24.4 Y104.349 E18.43792
G1 X24.999 Y103.834 E18.47733
G1 X25.647 Y103.383 E18.51671
G1 X26.338 Y102.999 E18.55615
G1 X27.063 Y102.687 E18.59553
G1 X27.816 Y102.45 E18.63492
G1 X28.59 Y102.291 E18.67434
G1 X29.375 Y102.21 E18.71371
G1 X29.777 Y102.2 E18.73377
G1 X42.424 Y102.2 E19.36473
G1 X42.424 Y97.801 E19.5842
G1 X30.224 Y97.801 E20.19286
G1 X29.435 Y97.761 E20.23227
G1 X28.655 Y97.642 E20.27164
G1 X27.89 Y97.444 E20.31106
G1 X27.15 Y97.17 E20.35043
G1 X26.441 Y96.822 E20.38983
G1 X25.77 Y96.404 E20.42927
G1 X25.146 Y95.921 E20.46864
G1 X24.573 Y95.378 E20.50803
G1 X24.058 Y94.779 E20.54744
G1 X23.607 Y94.131 E20.58683
G1 X23.223 Y93.44 E20.62627
G1 X22.911 Y92.715 E20.66564
G1 X22.674 Y91.962 E20.70503
G1 X22.515 Y91.188 E20.74445
G1 X22.434 Y90.403 E20.78382
G1 X22.424 Y90.001 E20.80388
G1 X22.424 Y80.001 E21.30278
G1 X22.464 Y79.212 E21.3422
G1 X22.583 Y78.432 E21.38156
G1 X22.781 Y77.667 E21.42099
G1 X23.055 Y76.927 E21.46035
G1 X23.403 Y76.218 E21.49976
G1 X23.821 Y75.547 E21.5392
G1 X24.304 Y74.923 E21.57857
G1 X24.847 Y74.35 E21.61795
G1 X25.446 Y73.835 E21.65736
G1 X26.094 Y73.384 E21.69675
G1 X26.785 Y73 E21.73619
G1 X27.51 Y72.688 E21.77557
G0 F3600 X27.875 Y72.984
G1 F1800 X28.617 Y72.778 E21.81399
G1 X29.375 Y72.65 E21.85234
G1 X30.224 Y72.601 E21.89477
G1 X60.224 Y72.601 E23.39147
G1 X60.992 Y72.641 E23.42984
G1 X61.752 Y72.76 E23.46822
G1 X62.495 Y72.958 E23.50658
G1 X63.214 Y73.232 E23.54497
G1 X63.9 Y73.579 E23.58332
G1 X64.547 Y73.995 E23.6217
G1 X65.147 Y74.476 E23.66006
G1 X65.694 Y75.017 E23.69844
G1 X66.182 Y75.612 E23.73684
G1 X66.605 Y76.254 E23.77519
G1 X66.96 Y76.937 E23.8136
G1 X67.241 Y77.652 E23.85192
G1 X67.447 Y78.394 E23.89034
G1 X67.575 Y79.152 E23.92869
G1 X67.624 Y80.001 E23.97112
G1 X67.624 Y82.601 E24.10084
G1 X170.223 Y82.6 E29.21952
G1 X170.991 Y82.64 E29.25789
G1 X171.751 Y82.759 E29.29627
G1 X172.494 Y82.957 E29.33463
G1 X173.213 Y83.231 E29.37302
G1 X173.899 Y83.578 E29.41137
G1 X174.546 Y83.994 E29.44975
G1 X175.146 Y84.475 E29.48811
G1 X175.693 Y85.016 E29.52649
G1 X176.181 Y85.611 E29.56489
G1 X176.604 Y86.253 E29.60324
G1 X176.959 Y86.936 E29.64165
G1 X177.24 Y87.651 E29.67997
G1 X177.446 Y88.392 E29.71834
G1 X177.574 Y89.151 E29.75675
G1 X177.623 Y90 E29.79917
G1 X177.623 Y110 E30.79698
G1 X177.583 Y110.768 E30.83534
G1 X177.464 Y111.528 E30.87372
G1 X177.266 Y112.271 E30.91209
G1 X176.992 Y112.99 E30.95047
G1 X176.645 Y113.676 E30.98883
G1 X176.229 Y114.323 E31.0272
G1 X175.748 Y114.923 E31.06557
G1 X175.207 Y115.47 E31.10395
G1 X174.612 Y115.958 E31.14234
G1 X173.97 Y116.381 E31.1807
G1 X173.287 Y116.736 E31.2191
G1 X172.572 Y117.017 E31.25743
G1 X171.83 Y117.223 E31.29585
G1 X171.072 Y117.351 E31.3342
G1 X170.223 Y117.4 E31.37663
G1 X67.624 Y117.4 E36.49531
G1 X67.624 Y120 E36.62503
G1 X67.584 Y120.768 E36.66339
G1 X67.465 Y121.528 E36.70177
G1 X67.267 Y122.271 E36.74014
G1 X66.993 Y122.99 E36.77852
G1 X66.646 Y123.676 E36.81688
G1 X66.23 Y124.323 E36.85525
G1 X65.749 Y124.923 E36.89362
G1 X65.208 Y125.47 E36.932
G1 X64.613 Y125.958 E36.97039
G1 X63.971 Y126.381 E37.00875
G1 X63.288 Y126.736 E37.04715
G1 X62.573 Y127.017 E37.08548
G1 X61.831 Y127.223 E37.1239
G1 X61.073 Y127.351 E37.16225
G1 X60.224 Y127.4 E37.20468
G1 X29.777 Y127.4 E38.72368
G1 X29.009 Y127.36 E38.76205
G1 X28.249 Y127.241 E38.80043
G1 X27.506 Y127.043 E38.83879
G1 X26.787 Y126.769 E38.87718
G1 X26.101 Y126.422 E38.91553
G1 X25.454 Y126.006 E38.95391
G1 X24.854 Y125.525 E38.99228
G1 X24.307 Y124.984 E39.03066
G1 X23.819 Y124.389 E39.06905
G1 X23.396 Y123.747 E39.10741
G1 X23.041 Y123.064 E39.14581
G1 X22.76 Y122.349 E39.18414
G1 X22.554 Y121.607 E39.22256
G1 X22.426 Y120.849 E39.26091
G1 X22.377 Y120 E39.30334
G1 X22.377 Y110 E39.80224
G1 X22.417 Y109.232 E39.8406
G1 X22.536 Y108.472 E39.87898
G1 X22.734 Y107.729 E39.91735
G1 X23.008 Y107.01 E39.95573
G1 X23.355 Y106.324 E39.99409
G1 X23.771 Y105.677 E40.03246
G1 X24.252 Y105.077 E40.07083
G1 X24.793 Y104.53 E40.10921
G1 X25.388 Y104.042 E40.1476
G1 X26.03 Y103.619 E40.18596
G1 X26.713 Y103.264 E40.22436
G1 X27.428 Y102.983 E40.26269
G1 X28.17 Y102.777 E40.30111
G1 X28.928 Y102.649 E40.33946
G1 X29.777 Y102.6 E40.38189
G1 X42.824 Y102.6 E41.03281
G1 X42.824 Y97.401 E41.29218
G1 X30.224 Y97.401 E41.9208
G1 X29.456 Y97.361 E41.95917
G1 X28.696 Y97.242 E41.99755
G1 X27.953 Y97.044 E42.03591
G1 X27.234 Y96.77 E42.0743
G1 X26.548 Y96.423 E42.11265
G1 X25.901 Y96.007 E42.15103
G1 X25.301 Y95.526 E42.18939
G1 X24.754 Y94.985 E42.22777
G1 X24.266 Y94.39 E42.26617
G1 X23.843 Y93.748 E42.30452
G1 X23.488 Y93.065 E42.34293
G1 X23.207 Y92.35 E42.38125
G1 X23.001 Y91.608 E42.41967
G1 X22.873 Y90.85 E42.45802
G1 X22.824 Y90.001 E42.50045
G1 X22.824 Y80.001 E42.99935
G1 X22.864 Y79.233 E43.03772
G1 X22.983 Y78.473 E43.0761
G1 X23.181 Y77.73 E43.11446
G1 X23.455 Y77.011 E43.15285
G1 X23.802 Y76.325 E43.1912
G1 X24.218 Y75.678 E43.22958
G1 X24.699 Y75.078 E43.26794
G1 X25.24 Y74.531 E43.30633
G1 X25.835 Y74.043 E43.34472
G1 X26.477 Y73.62 E43.38308
G1 X27.16 Y73.265 E43.42148
G1 X27.875 Y72.984 E43.45981
G0 F3600 X28.237 Y73.289
G1 F1800 X28.965 Y73.115 E43.49715
G1 X29.707 Y73.02 E43.53447
G1 X30.224 Y73.001 E43.56028
G1 X60.224 Y73.001 E45.05699
G1 X60.971 Y73.041 E45.09431
G1 X61.709 Y73.16 E45.1316
G1 X62.431 Y73.358 E45.16895
G1 X63.127 Y73.631 E45.20625
G1 X63.79 Y73.978 E45.24359
G1 X64.413 Y74.393 E45.28093
G1 X64.987 Y74.872 E45.31823
G1 X65.508 Y75.409 E45.35556
G1 X65.967 Y75.999 E45.39285
G1 X66.362 Y76.635 E45.4302
G1 X66.686 Y77.309 E45.46751
G1 X66.936 Y78.014 E45.50483
G1 X67.11 Y78.742 E45.54218
G1 X67.205 Y79.484 E45.5795
G1 X67.224 Y80.001 E45.60531
G1 X67.224 Y83.001 E45.75498
G1 X170.223 Y83 E50.89362
G1 X170.97 Y83.04 E50.93094
G1 X171.708 Y83.159 E50.96823
G1 X172.43 Y83.357 E51.00558
G1 X173.126 Y83.63 E51.04288
G1 X173.789 Y83.977 E51.08022
G1 X174.412 Y84.392 E51.11756
G1 X174.986 Y84.871 E51.15486
G1 X175.507 Y85.408 E51.19219
G1 X175.966 Y85.998 E51.22948
G1 X176.361 Y86.634 E51.26684
G1 X176.685 Y87.308 E51.30415
G1 X176.935 Y88.013 E51.34146
G1 X177.109 Y88.741 E51.37881
G1 X177.204 Y89.483 E51.41613
G1 X177.223 Y90 E51.44194
G1 X177.223 Y110 E52.43974
G1 X177.183 Y110.747 E52.47706
G1 X177.064 Y111.485 E52.51436
G1 X176.866 Y112.207 E52.55171
G1 X176.593 Y112.903 E52.58901
G1 X176.246 Y113.566 E52.62634
G1 X175.831 Y114.189 E52.66369
G1 X175.352 Y114.763 E52.70099
G1 X174.815 Y115.284 E52.73831
G1 X174.225 Y115.743 E52.77561
G1 X173.589 Y116.138 E52.81296
G1 X172.915 Y116.462 E52.85027
G1 X172.21 Y116.712 E52.88759
G1 X171.482 Y116.886 E52.92493
G1 X170.74 Y116.981 E52.96225
G1 X170.223 Y117 E52.98806
G1 X67.224 Y117 E58.1267
G1 X67.224 Y120 E58.27637
G1 X67.184 Y120.747 E58.3137
G1 X67.065 Y121.485 E58.35099
G1 X66.867 Y122.207 E58.38834
G1 X66.594 Y122.903 E58.42564
G1 X66.247 Y123.566 E58.46297
G1 X65.832 Y124.189 E58.50032
G1 X65.353 Y124.763 E58.53762
G1 X64.816 Y125.284 E58.57495
G1 X64.226 Y125.743 E58.61224
G1 X63.59 Y126.138 E58.64959
G1 X62.916 Y126.462 E58.6869
G1 X62.211 Y126.712 E58.72422
G1 X61.483 Y126.886 E58.76156
G1 X60.741 Y126.981 E58.79888
G1 X60.224 Y127 E58.82469
G1 X29.777 Y127 E60.3437
G1 X29.03 Y126.96 E60.38102
G1 X28.292 Y126.841 E60.41832
G1 X27.57 Y126.643 E60.45567
G1 X26.874 Y126.37 E60.49297
G1 X26.211 Y126.023 E60.5303
G1 X25.588 Y125.608 E60.56765
G1 X25.014 Y125.129 E60.60495
G1 X24.493 Y124.592 E60.64227
G1 X24.034 Y124.002 E60.67957
G1 X23.639 Y123.366 E60.71692
G1 X23.315 Y122.692 E60.75423
G1 X23.065 Y121.987 E60.79155
G1 X22.891 Y121.259 E60.82889
G1 X22.796 Y120.517 E60.86621
G1 X22.777 Y120 E60.89202
G1 X22.777 Y110 E61.39092
G1 X22.817 Y109.253 E61.42824
G1 X22.936 Y108.515 E61.46554
G1 X23.134 Y107.793 E61.50289
G1 X23.407 Y107.097 E61.54019
G1 X23.754 Y106.434 E61.57752
G1 X24.169 Y105.811 E61.61487
G1 X24.648 Y105.237 E61.65217
G1 X25.185 Y104.716 E61.6895
G1 X25.775 Y104.257 E61.72679
G1 X26.411 Y103.862 E61.76414
G1 X27.085 Y103.538 E61.80145
G1 X27.79 Y103.288 E61.83877
G1 X28.518 Y103.114 E61.87611
G1 X29.26 Y103.019 E61.91343
G1 X29.777 Y103 E61.93924
G1 X43.224 Y103 E62.61012
G1 X43.224 Y97.001 E62.90941
G1 X30.224 Y97.001 E63.55798
G1 X29.477 Y96.961 E63.5953
G1 X28.739 Y96.842 E63.6326
G1 X28.017 Y96.644 E63.66995
G1 X27.321 Y96.371 E63.70725
G1 X26.658 Y96.024 E63.74458
G1 X26.035 Y95.609 E63.78193
G1 X25.461 Y95.13 E63.81922
G1 X24.94 Y94.593 E63.85655
G1 X24.481 Y94.003 E63.89385
G1 X24.086 Y93.367 E63.9312
G1 X23.762 Y92.693 E63.96851
G1 X23.512 Y91.988 E64.00583
G1 X23.338 Y91.26 E64.04317
G1 X23.243 Y90.518 E64.08049
G1 X23.224 Y90.001 E64.1063
G1 X23.224 Y80.001 E64.6052
G1 X23.264 Y79.254 E64.64252
G1 X23.383 Y78.516 E64.67982
G1 X23.581 Y77.794 E64.71717
G1 X23.854 Y77.098 E64.75447
G1 X24.201 Y76.435 E64.7918
G1 X24.616 Y75.812 E64.82915
G1 X25.095 Y75.238 E64.86645
G1 X25.632 Y74.717 E64.90377
G1 X26.222 Y74.258 E64.94107
G1 X26.858 Y73.863 E64.97842
G1 X27.532 Y73.539 E65.01573
G1 X28.237 Y73.289 E65.05305
G0 F3600 X28.595 Y73.605
G1 F1800 X29.307 Y73.465 E65.08925
G1 X30.224 Y73.401 E65.13511
G1 X60.224 Y73.401 E66.63182
G1 X60.949 Y73.441 E66.66804
G1 X61.666 Y73.56 E66.7043
G1 X62.365 Y73.758 E66.74055
G1 X63.038 Y74.031 E66.77678
G1 X63.677 Y74.376 E66.81301
G1 X64.274 Y74.79 E66.84926
G1 X64.822 Y75.266 E66.88547
G1 X65.315 Y75.8 E66.92173
G1 X65.745 Y76.385 E66.95795
G1 X66.109 Y77.014 E66.99421
G1 X66.402 Y77.679 E67.03046
G1 X66.62 Y78.372 E67.06671
G1 X66.76 Y79.084 E67.10291
G1 X66.824 Y80.001 E67.14877
G1 X66.824 Y83.401 E67.3184
G1 X170.223 Y83.4 E72.47699
G1 X170.948 Y83.44 E72.51322
G1 X171.665 Y83.559 E72.54948
G1 X172.364 Y83.757 E72.58572
G1 X173.037 Y84.03 E72.62196
G1 X173.676 Y84.375 E72.65819
G1 X174.273 Y84.789 E72.69443
G1 X174.821 Y85.265 E72.73065
G1 X175.314 Y85.799 E72.76691
G1 X175.744 Y86.384 E72.80313
G1 X176.108 Y87.013 E72.83938
G1 X176.401 Y87.678 E72.87564
G1 X176.619 Y88.37 E72.91184
G1 X176.759 Y89.083 E72.94809
G1 X176.823 Y90 E72.99395
G1 X176.823 Y110 E73.99175
G1 X176.783 Y110.725 E74.02798
G1 X176.664 Y111.442 E74.06424
G1 X176.466 Y112.141 E74.10048
G1 X176.193 Y112.814 E74.13672
G1 X175.848 Y113.453 E74.17295
G1 X175.434 Y114.05 E74.20919
G1 X174.958 Y114.598 E74.2454
G1 X174.424 Y115.091 E74.28166
G1 X173.839 Y115.521 E74.31789
G1 X173.21 Y115.885 E74.35414
G1 X172.545 Y116.178 E74.3904
G1 X171.852 Y116.396 E74.42664
G1 X171.14 Y116.536 E74.46284
G1 X170.223 Y116.6 E74.5087
G1 X66.824 Y116.6 E79.6673
G1 X66.824 Y120 E79.83693
G1 X66.784 Y120.725 E79.87315
G1 X66.665 Y121.442 E79.90941
G1 X66.467 Y122.141 E79.94566
G1 X66.194 Y122.814 E79.98189
G1 X65.849 Y123.453 E80.01812
G1 X65.435 Y124.05 E80.05437
G1 X64.959 Y124.598 E80.09058
G1 X64.425 Y125.091 E80.12684
G1 X63.84 Y125.521 E80.16306
G1 X63.211 Y125.885 E80.19932
G1 X62.546 Y126.178 E80.23557
G1 X61.853 Y126.396 E80.27182
G1 X61.141 Y126.536 E80.30802
G1 X60.224 Y126.6 E80.35388
G1 X29.777 Y126.6 E81.87289
G1 X29.052 Y126.56 E81.90911
G1 X28.335 Y126.441 E81.94537
G1 X27.636 Y126.243 E81.98162
G1 X26.963 Y125.97 E82.01785
G1 X26.324 Y125.625 E82.05408
G1 X25.727 Y125.211 E82.09033
G1 X25.179 Y124.735 E82.12654
G1 X24.686 Y124.201 E82.1628
G1 X24.256 Y123.616 E82.19902
G1 X23.892 Y122.987 E82.23528
G1 X23.599 Y122.322 E82.27153
G1 X23.381 Y121.629 E82.30778
G1 X23.241 Y120.917 E82.34398
G1 X23.177 Y120 E82.38984
G1 X23.177 Y110 E82.88874
G1 X23.217 Y109.275 E82.92497
G1 X23.336 Y108.558 E82.96123
G1 X23.534 Y107.859 E82.99747
G1 X23.807 Y107.186 E83.03371
G1 X24.152 Y106.547 E83.06994
G1 X24.566 Y105.95 E83.10618
G1 X25.042 Y105.402 E83.14239
G1 X25.576 Y104.909 E83.17865
G1 X26.161 Y104.479 E83.21487
G1 X26.79 Y104.115 E83.25113
G1 X27.455 Y103.822 E83.28739
G1 X28.148 Y103.604 E83.32363
G1 X28.86 Y103.464 E83.35983
G1 X29.777 Y103.4 E83.40569
G1 X43.624 Y103.4 E84.09652
G1 X43.624 Y96.601 E84.43573
G1 X30.224 Y96.601 E85.10425
G1 X29.499 Y96.561 E85.14048
G1 X28.782 Y96.442 E85.17674
G1 X28.083 Y96.244 E85.21299
G1 X27.41 Y95.971 E85.24922
G1 X26.771 Y95.626 E85.28545
G1 X26.174 Y95.212 E85.32169
G1 X25.626 Y94.736 E85.35791
G1 X25.133 Y94.202 E85.39417
G1 X24.703 Y93.617 E85.43039
G1 X24.339 Y92.988 E85.46665
G1 X24.046 Y92.323 E85.5029
G1 X23.828 Y91.63 E85.53914
G1 X23.688 Y90.918 E85.57535
G1 X23.624 Y90.001 E85.62121
G1 X23.624 Y80.001 E86.12011
G1 X23.664 Y79.276 E86.15633
G1 X23.783 Y78.559 E86.1926
G1 X23.981 Y77.86 E86.22884
G1 X24.254 Y77.187 E86.26507
G1 X24.599 Y76.548 E86.3013
G1 X25.013 Y75.951 E86.33755
G1 X25.489 Y75.403 E86.37376
G1 X26.023 Y74.91 E86.41002
G1 X26.608 Y74.48 E86.44624
G1 X27.237 Y74.116 E86.4825
